X: 438
T: A Bright Evening
N:"With spirit" "collected by M.O'Brien"
N:Irish title: tra.tnona geal
B:O'Neill's 438
Z:Transcribed by henrik.norbeck@mailbox.swipnet.se
M:2/4
L:1/8
K:G
(D/E/) | G>A Bd | (eg) dB/A/ | GE/D/ GG | G3 Hx ||
(B/d/) | gf ef/g/ | af dB/d/ | ed/B/ (d/e/f/a/) | g3 (B/d/) |
gf e(f/g/) | af d(B/d/) | e>(d B/A/B/d/) | e3 ||


